svg/set/Y23/T.svg

<?xml version="1.0" encoding="UTF-8" standalone="no"?>
<svg
   width="149.99899"
   height="67.823997"
   viewBox="0 0 149.99899 67.823997"
   version="1.1"
   xml:space="preserve"
   style="clip-rule:evenodd;fill-rule:evenodd;stroke-linejoin:round;stroke-miterlimit:2"
   id="svg7"
   xmlns="http://www.w3.org/2000/svg"
   xmlns:svg="http://www.w3.org/2000/svg">
    <g
   transform="translate(-4.854,-3.2)"
   id="g3">
        <path
   d="M 146.946,4.645 145.909,3.2 H 27.882 c -1.642,0 -3.06,1.15 -3.397,2.759 -0.334,1.606 0.5,3.229 2.006,3.892 1.292,0.565 3.945,2.243 4.523,3.738 0.112,0.291 0.143,0.538 -0.041,0.947 L 12.727,55.367 c -2.396,5.361 -6.59,8.939 -6.625,8.969 -0.791,0.661 -1.248,1.637 -1.248,2.666 v 0.552 c 0,1.916 1.554,3.47 3.471,3.47 h 30.6 c 1.57,0 3.037,-0.996 3.444,-2.512 0.401,-1.499 -0.149,-3.025 -1.478,-3.82 -0.369,-0.307 -2.756,-2.539 -2.756,-8.494 0,-4.26 9.314,-10.416 15.61,-13.234 0.08,-0.038 0.158,-0.076 0.235,-0.117 l 6.648,14.879 c 1.643,3.676 -3.148,6.756 -3.337,6.876 -1.321,0.813 -1.942,2.406 -1.517,3.9 0.422,1.491 1.783,2.522 3.337,2.522 h 86.797 l 1.037,-1.443 c 0.324,-0.451 7.908,-11.248 7.908,-32.469 0.001,-21.223 -7.582,-32.018 -7.907,-32.467 z"
   style="fill-rule:nonzero"
   id="path1" />
        <path
   d="m 61.291,66.803 c 2.195,-1.977 5.376,-5.91 3.189,-10.801 L 46.083,14.832 34.594,40.543 h 14.521 c -5.134,2.706 -15.2,8.877 -15.2,15.652 0,5.676 1.825,8.955 3.175,10.606 H 9.659 c 1.535,-1.469 4.784,-4.932 6.921,-9.713 L 34.826,16.256 c 0.621,-1.388 0.663,-2.801 0.125,-4.19 C 34.176,10.057 32.321,8.467 30.749,7.42 H 68.9 c -1.752,1.646 -3.188,4.348 -1.633,7.83 l 19.126,42.8 c 2,4.479 4.849,7.254 6.799,8.753 z"
   style="fill:#632e77;fill-rule:nonzero"
   id="path2" />
        <path
   d="M 143.726,7.42 H 78.307 c -2.053,0 -4.404,1.332 -5.597,3.166 -0.562,0.867 -1.095,2.208 -0.438,3.68 0.141,0.316 14.222,31.951 18.661,41.754 4.692,10.364 16.771,10.771 18.127,10.783 h 34.668 c 1.172,-1.841 6.908,-11.795 6.908,-29.691 0,-17.896 -5.739,-27.849 -6.91,-29.692 z M 92.37,49.314 c 2.422,-2.873 4.642,-5.625 6.648,-8.258 2.009,-2.63 3.72,-5.132 5.14,-7.508 1.421,-2.371 2.528,-4.585 3.327,-6.646 0.794,-2.062 1.19,-3.954 1.19,-5.688 0,-1.974 -0.463,-3.419 -1.397,-4.337 -0.939,-0.917 -2.046,-1.377 -3.327,-1.377 -0.832,0 -1.56,0.164 -2.181,0.494 -0.621,0.33 -1.125,0.761 -1.505,1.298 -0.385,0.536 -0.668,1.162 -0.858,1.872 -0.189,0.709 -0.287,1.445 -0.287,2.206 0,0.487 0.033,0.96 0.105,1.429 0.068,0.466 0.174,0.875 0.313,1.222 l -0.157,0.151 -5.764,-7.269 c 1.246,-1.214 2.775,-2.225 4.594,-3.039 1.817,-0.813 3.833,-1.218 6.052,-1.218 1.557,0 3.058,0.199 4.493,0.597 1.438,0.396 2.71,0.983 3.817,1.766 1.107,0.778 1.991,1.746 2.65,2.908 0.654,1.158 0.984,2.52 0.984,4.075 0,1.838 -0.405,3.524 -1.222,5.063 -0.812,1.543 -1.918,3.137 -3.322,4.78 -1.402,1.645 -3.063,3.436 -4.987,5.376 -1.919,1.94 -3.99,4.224 -6.205,6.856 h 12.777 l 0.157,-0.056 2.596,-5.658 h 0.206 V 49.52 H 92.472 Z m 37.136,-33.813 c -0.798,0 -1.479,0.172 -2.05,0.521 -0.575,0.346 -1.039,0.798 -1.402,1.352 -0.363,0.554 -0.635,1.191 -0.807,1.918 -0.175,0.729 -0.259,1.455 -0.259,2.182 l -0.157,0.055 -4.153,-4.518 c 1.174,-1.387 2.585,-2.46 4.23,-3.222 1.645,-0.761 3.474,-1.141 5.481,-1.141 1.489,0 2.892,0.182 4.206,0.546 1.314,0.363 2.46,0.899 3.429,1.605 0.968,0.71 1.741,1.603 2.313,2.676 0.569,1.074 0.855,2.319 0.855,3.74 0,1.179 -0.201,2.245 -0.599,3.195 -0.398,0.951 -0.909,1.801 -1.531,2.545 -0.624,0.745 -1.335,1.369 -2.129,1.867 -0.795,0.504 -1.595,0.876 -2.389,1.117 v 0.211 c 1.106,0.274 2.147,0.655 3.115,1.141 0.968,0.486 1.81,1.092 2.52,1.818 0.71,0.726 1.264,1.593 1.66,2.596 0.397,1.006 0.601,2.146 0.601,3.427 0,3.36 -1.073,6.021 -3.221,7.977 -2.147,1.957 -5.194,2.934 -9.143,2.934 -2.181,0 -4.112,-0.364 -5.791,-1.091 -1.679,-0.727 -3.073,-1.644 -4.18,-2.75 l 4.468,-5.509 0.151,0.052 c 0,0.831 0.098,1.635 0.288,2.416 0.189,0.777 0.494,1.462 0.91,2.05 0.412,0.588 0.94,1.064 1.584,1.429 0.637,0.364 1.391,0.546 2.257,0.546 1.594,0 2.807,-0.571 3.635,-1.712 0.833,-1.146 1.247,-2.789 1.247,-4.937 0,-1.074 -0.102,-2.101 -0.309,-3.09 -0.207,-0.985 -0.545,-1.852 -1.014,-2.596 -0.47,-0.744 -1.1,-1.344 -1.896,-1.791 -0.798,-0.452 -1.783,-0.677 -2.962,-0.677 l -2.802,-2.651 v -0.207 h 1.297 c 1.142,0 2.14,-0.24 2.984,-0.727 0.85,-0.485 1.544,-1.124 2.079,-1.923 0.538,-0.795 0.943,-1.687 1.223,-2.672 0.274,-0.987 0.414,-1.982 0.414,-2.988 0,-1.974 -0.389,-3.419 -1.171,-4.337 -0.775,-0.917 -1.768,-1.377 -2.982,-1.377 z"
   style="fill:url(#_Linear1);fill-rule:nonzero"
   id="path3" />
    </g>
    <defs
   id="defs7">
        <linearGradient
   id="_Linear1"
   x1="0"
   y1="0"
   x2="1"
   y2="0"
   gradientUnits="userSpaceOnUse"
   gradientTransform="matrix(62.1632,-28.9872,28.9872,62.1632,87.1641,47.9414)"><stop
     offset="0"
     style="stop-color:rgb(97,44,117);stop-opacity:1"
     id="stop3" /><stop
     offset="0.3"
     style="stop-color:rgb(123,81,144);stop-opacity:1"
     id="stop4" /><stop
     offset="0.5"
     style="stop-color:rgb(191,153,195);stop-opacity:1"
     id="stop5" /><stop
     offset="0.7"
     style="stop-color:rgb(123,81,144);stop-opacity:1"
     id="stop6" /><stop
     offset="1"
     style="stop-color:rgb(97,44,117);stop-opacity:1"
     id="stop7" /></linearGradient>
    </defs>
</svg>

<?xml version="1.0" encoding="UTF-8" standalone="no"?>
<!DOCTYPE svg PUBLIC "-//W3C//DTD SVG 1.1//EN" "http://www.w3.org/Graphics/SVG/1.1/DTD/svg11.dtd">
<svg width="100%" height="100%" viewBox="0 0 160 75" version="1.1" xmlns="http://www.w3.org/2000/svg" xmlns:xlink="http://www.w3.org/1999/xlink" xml:space="preserve" xmlns:serif="http://www.serif.com/" style="fill-rule:evenodd;clip-rule:evenodd;stroke-linejoin:round;stroke-miterlimit:2;">
    <g transform="matrix(1,0,0,1,0.1465,0.388)">
        <path d="M146.946,4.645L145.909,3.2L27.882,3.2C26.24,3.2 24.822,4.35 24.485,5.959C24.151,7.565 24.985,9.188 26.491,9.851C27.783,10.416 30.436,12.094 31.014,13.589C31.126,13.88 31.157,14.127 30.973,14.536L12.727,55.367C10.331,60.728 6.137,64.306 6.102,64.336C5.311,64.997 4.854,65.973 4.854,67.002L4.854,67.554C4.854,69.47 6.408,71.024 8.325,71.024L38.925,71.024C40.495,71.024 41.962,70.028 42.369,68.512C42.77,67.013 42.22,65.487 40.891,64.692C40.522,64.385 38.135,62.153 38.135,56.198C38.135,51.938 47.449,45.782 53.745,42.964C53.825,42.926 53.903,42.888 53.98,42.847L60.628,57.726C62.271,61.402 57.48,64.482 57.291,64.602C55.97,65.415 55.349,67.008 55.774,68.502C56.196,69.993 57.557,71.024 59.111,71.024L145.908,71.024L146.945,69.581C147.269,69.13 154.853,58.333 154.853,37.112C154.854,15.889 147.271,5.094 146.946,4.645Z" style="fill-rule:nonzero;"/>
        <path d="M61.291,66.803C63.486,64.826 66.667,60.893 64.48,56.002L46.083,14.832L34.594,40.543L49.115,40.543C43.981,43.249 33.915,49.42 33.915,56.195C33.915,61.871 35.74,65.15 37.09,66.801L9.659,66.801C11.194,65.332 14.443,61.869 16.58,57.088L34.826,16.256C35.447,14.868 35.489,13.455 34.951,12.066C34.176,10.057 32.321,8.467 30.749,7.42L68.9,7.42C67.148,9.066 65.712,11.768 67.267,15.25L86.393,58.05C88.393,62.529 91.242,65.304 93.192,66.803L61.291,66.803Z" style="fill:rgb(99,46,119);fill-rule:nonzero;"/>
        <path d="M143.726,7.42L78.307,7.42C76.254,7.42 73.903,8.752 72.71,10.586C72.148,11.453 71.615,12.794 72.272,14.266C72.413,14.582 86.494,46.217 90.933,56.02C95.625,66.384 107.704,66.791 109.06,66.803L143.728,66.803C144.9,64.962 150.636,55.008 150.636,37.112C150.636,19.216 144.897,9.263 143.726,7.42ZM92.37,49.314C94.792,46.441 97.012,43.689 99.018,41.056C101.027,38.426 102.738,35.924 104.158,33.548C105.579,31.177 106.686,28.963 107.485,26.902C108.279,24.84 108.675,22.948 108.675,21.214C108.675,19.24 108.212,17.795 107.278,16.877C106.339,15.96 105.232,15.5 103.951,15.5C103.119,15.5 102.391,15.664 101.77,15.994C101.149,16.324 100.645,16.755 100.265,17.292C99.88,17.828 99.597,18.454 99.407,19.164C99.218,19.873 99.12,20.609 99.12,21.37C99.12,21.857 99.153,22.33 99.225,22.799C99.293,23.265 99.399,23.674 99.538,24.021L99.381,24.172L93.617,16.903C94.863,15.689 96.392,14.678 98.211,13.864C100.028,13.051 102.044,12.646 104.263,12.646C105.82,12.646 107.321,12.845 108.756,13.243C110.194,13.639 111.466,14.226 112.573,15.009C113.68,15.787 114.564,16.755 115.223,17.917C115.877,19.075 116.207,20.437 116.207,21.992C116.207,23.83 115.802,25.516 114.985,27.055C114.173,28.598 113.067,30.192 111.663,31.835C110.261,33.48 108.6,35.271 106.676,37.211C104.757,39.151 102.686,41.435 100.471,44.067L113.248,44.067L113.405,44.011L116.001,38.353L116.207,38.353L116.207,49.52L92.472,49.52L92.37,49.314ZM129.506,15.501C128.708,15.501 128.027,15.673 127.456,16.022C126.881,16.368 126.417,16.82 126.054,17.374C125.691,17.928 125.419,18.565 125.247,19.292C125.072,20.021 124.988,20.747 124.988,21.474L124.831,21.529L120.678,17.011C121.852,15.624 123.263,14.551 124.908,13.789C126.553,13.028 128.382,12.648 130.389,12.648C131.878,12.648 133.281,12.83 134.595,13.194C135.909,13.557 137.055,14.093 138.024,14.799C138.992,15.509 139.765,16.402 140.337,17.475C140.906,18.549 141.192,19.794 141.192,21.215C141.192,22.394 140.991,23.46 140.593,24.41C140.195,25.361 139.684,26.211 139.062,26.955C138.438,27.7 137.727,28.324 136.933,28.822C136.138,29.326 135.338,29.698 134.544,29.939L134.544,30.15C135.65,30.424 136.691,30.805 137.659,31.291C138.627,31.777 139.469,32.383 140.179,33.109C140.889,33.835 141.443,34.702 141.839,35.705C142.236,36.711 142.44,37.851 142.44,39.132C142.44,42.492 141.367,45.153 139.219,47.109C137.072,49.066 134.025,50.043 130.076,50.043C127.895,50.043 125.964,49.679 124.285,48.952C122.606,48.225 121.212,47.308 120.105,46.202L124.573,40.693L124.724,40.745C124.724,41.576 124.822,42.38 125.012,43.161C125.201,43.938 125.506,44.623 125.922,45.211C126.334,45.799 126.862,46.275 127.506,46.64C128.143,47.004 128.897,47.186 129.763,47.186C131.357,47.186 132.57,46.615 133.398,45.474C134.231,44.328 134.645,42.685 134.645,40.537C134.645,39.463 134.543,38.436 134.336,37.447C134.129,36.462 133.791,35.595 133.322,34.851C132.852,34.107 132.222,33.507 131.426,33.06C130.628,32.608 129.643,32.383 128.464,32.383L125.662,29.732L125.662,29.525L126.959,29.525C128.101,29.525 129.099,29.285 129.943,28.798C130.793,28.313 131.487,27.674 132.022,26.875C132.56,26.08 132.965,25.188 133.245,24.203C133.519,23.216 133.659,22.221 133.659,21.215C133.659,19.241 133.27,17.796 132.488,16.878C131.713,15.961 130.72,15.501 129.506,15.501Z" style="fill:url(#_Linear1);fill-rule:nonzero;"/>
    </g>
    <defs>
        <linearGradient id="_Linear1" x1="0" y1="0" x2="1" y2="0" gradientUnits="userSpaceOnUse" gradientTransform="matrix(62.1632,-28.9872,28.9872,62.1632,87.1641,47.9414)"><stop offset="0" style="stop-color:rgb(97,44,117);stop-opacity:1"/><stop offset="0.3" style="stop-color:rgb(123,81,144);stop-opacity:1"/><stop offset="0.5" style="stop-color:rgb(191,153,195);stop-opacity:1"/><stop offset="0.7" style="stop-color:rgb(123,81,144);stop-opacity:1"/><stop offset="1" style="stop-color:rgb(97,44,117);stop-opacity:1"/></linearGradient>
    </defs>
</svg>
